X: 19707
T: Jenny Lind
R: polka
M: 2/4
K: Dmajor
|:FA GB|Af fe/f/|ge e/f/g/e/|fd d2|
FA GB|Af fe/f/|ge e/f/g/e/|fd d2:|
Bc|:dB B/c/d/B/|Af fe/f/|ge e/f/g/e/|fd d2|
dc BA|Af fe/f/|ge e/f/g/e/|fd d2:|

